img/adv-icon6.svg

<svg width="56" height="56" viewBox="0 0 56 56" fill="none" xmlns="http://www.w3.org/2000/svg">
    <path d="M51.2584 18.3067C50.359 18.1379 49.429 18.3197 48.6594 18.8149C47.8898 19.31 47.3389 20.0809 47.1196 20.9694L45.0529 28.6694C44.5112 28.3109 43.8803 28.1108 43.2311 28.0913C42.5818 28.0718 41.9401 28.2338 41.3779 28.5591L35.3946 32.0687C34.2116 32.7652 33.2303 33.7577 32.5474 34.9486C31.8645 36.1395 31.5035 37.4877 31.5 38.8605V45.5H29.75C29.5179 45.5 29.2954 45.5922 29.1313 45.7563C28.9672 45.9204 28.875 46.1429 28.875 46.375V53.375C28.875 53.607 28.9672 53.8296 29.1313 53.9937C29.2954 54.1578 29.5179 54.25 29.75 54.25H45.5C45.7321 54.25 45.9546 54.1578 46.1187 53.9937C46.2828 53.8296 46.375 53.607 46.375 53.375V46.375C46.375 46.1429 46.2828 45.9204 46.1187 45.7563C45.9546 45.5922 45.7321 45.5 45.5 45.5H43.75V44.485C43.7499 44.1063 43.8317 43.7321 43.9899 43.3881C44.148 43.044 44.3787 42.7382 44.6661 42.4917L48.7463 38.9917C49.4165 38.4187 49.8973 37.656 50.1252 36.8042L53.9219 22.6362C54.0016 22.3392 54.0413 22.0329 54.04 21.7254C54.0357 20.9237 53.7575 20.1477 53.2516 19.5259C52.7456 18.9041 52.0424 18.4739 51.2584 18.3067ZM44.625 52.5H30.625V47.25H44.625V52.5ZM52.2323 22.1821L48.4347 36.3519C48.2985 36.863 48.0101 37.3207 47.6079 37.6644L43.5277 41.1644C43.0487 41.575 42.6642 42.0843 42.4005 42.6575C42.1368 43.2306 42.0002 43.8541 42 44.485V45.5H33.25V38.8605C33.2522 37.7929 33.5324 36.7444 34.0629 35.818C34.5935 34.8916 35.3561 34.1194 36.2758 33.5772L42.252 30.0711C42.5183 29.9181 42.8199 29.8376 43.127 29.8375C43.4518 29.8346 43.7708 29.9234 44.0474 30.0936C44.324 30.2639 44.5469 30.5087 44.6906 30.8C44.882 31.2229 44.9062 31.7027 44.7583 32.1427C44.6104 32.5828 44.3014 32.9505 43.8935 33.1721L38.9935 35.9957C38.8939 36.0532 38.8065 36.1297 38.7365 36.2209C38.6664 36.3121 38.615 36.4162 38.5852 36.5273C38.5554 36.6384 38.5477 36.7542 38.5627 36.8682C38.5777 36.9823 38.6149 37.0922 38.6724 37.1919C38.7298 37.2915 38.8063 37.3788 38.8975 37.4489C38.9888 37.5189 39.0929 37.5703 39.2039 37.6001C39.315 37.63 39.4309 37.6376 39.5449 37.6227C39.6589 37.6077 39.7689 37.5704 39.8685 37.513L44.7685 34.6894C45.5025 34.2803 46.0688 33.6256 46.3679 32.8403C46.667 32.055 46.6798 31.1895 46.4039 30.3957L48.811 21.427C48.9201 20.9742 49.1954 20.5789 49.5823 20.3196C49.9691 20.0603 50.4393 19.9559 50.8996 20.027C51.29 20.1101 51.6404 20.3237 51.8931 20.6325C52.1458 20.9414 52.2858 21.3272 52.29 21.7262C52.2912 21.8801 52.2717 22.0334 52.2323 22.1821Z" fill="white"/>
    <path d="M26.25 45.5H24.5V38.8605C24.497 37.488 24.1368 36.1399 23.4547 34.9488C22.7726 33.7578 21.7921 32.7649 20.6097 32.0679L14.6195 28.5539C14.0568 28.2295 13.4149 28.0683 12.7658 28.0884C12.1167 28.1085 11.486 28.3091 10.9445 28.6676L8.8786 20.9676C8.65823 20.0794 8.10678 19.3091 7.33709 18.8141C6.5674 18.3191 5.63765 18.137 4.7381 18.305C4.27294 18.4033 3.83264 18.5951 3.44396 18.8689C3.05529 19.1427 2.72638 19.4927 2.47723 19.8976C2.22808 20.3025 2.0639 20.7539 1.99469 21.2242C1.92547 21.6946 1.95266 22.1741 2.0746 22.6336L5.8721 36.8034C6.09939 37.6553 6.57996 38.4181 7.25022 38.9909L11.3303 42.4909C11.6185 42.7371 11.85 43.0429 12.0087 43.3871C12.1675 43.7314 12.2498 44.1059 12.25 44.485V45.5H10.5C10.2679 45.5 10.0453 45.5922 9.88126 45.7563C9.71716 45.9204 9.62497 46.1429 9.62497 46.375V53.375C9.62497 53.6071 9.71716 53.8296 9.88126 53.9937C10.0453 54.1578 10.2679 54.25 10.5 54.25H26.25C26.482 54.25 26.7046 54.1578 26.8687 53.9937C27.0328 53.8296 27.125 53.6071 27.125 53.375V46.375C27.125 46.1429 27.0328 45.9204 26.8687 45.7563C26.7046 45.5922 26.482 45.5 26.25 45.5ZM12.4722 41.1626L8.3921 37.6626C7.98958 37.3192 7.70116 36.8614 7.56522 36.3501L3.76772 22.1812C3.72829 22.0328 3.70887 21.8798 3.70997 21.7262C3.71245 21.3256 3.85188 20.9378 4.1051 20.6273C4.35832 20.3168 4.71012 20.1022 5.1021 20.0191C5.5623 19.9486 6.0322 20.0533 6.41893 20.3126C6.80566 20.5718 7.08107 20.9666 7.19072 21.4191L9.59785 30.387C9.32174 31.1808 9.33434 32.0466 9.63345 32.8321C9.93256 33.6175 10.499 34.2724 11.2332 34.6815L16.1332 37.5051C16.3344 37.6212 16.5735 37.6525 16.7978 37.5923C17.0221 37.5321 17.2133 37.3852 17.3293 37.184C17.4454 36.9828 17.4767 36.7437 17.4165 36.5194C17.3563 36.2951 17.2094 36.1039 17.0082 35.9879L12.1082 33.1642C11.7001 32.9428 11.391 32.5751 11.2429 32.135C11.0949 31.695 11.1189 31.2152 11.3102 30.7921C11.4551 30.5029 11.6782 30.2601 11.9541 30.0914C12.23 29.9226 12.5478 29.8347 12.8712 29.8375C13.1762 29.8368 13.476 29.9159 13.741 30.0667L19.7242 33.5781C20.6439 34.12 21.4066 34.8921 21.9372 35.8183C22.4677 36.7446 22.7479 37.793 22.75 38.8605V45.5H14V44.485C14.0001 43.8538 13.8636 43.23 13.5999 42.6565C13.3362 42.083 12.9515 41.5734 12.4722 41.1626ZM25.375 52.5H11.375V47.25H25.375V52.5Z" fill="white"/>
    <path d="M42 13.65V2.62502C42.0003 2.47128 41.96 2.32017 41.8834 2.18691C41.8067 2.05366 41.6963 1.94295 41.5632 1.86595C41.4301 1.78895 41.2791 1.74837 41.1254 1.74829C40.9716 1.74822 40.8206 1.78865 40.6875 1.86552L39.4406 2.57777C38.0656 3.36541 36.5172 3.80068 34.9333 3.8448C33.3493 3.88892 31.7791 3.54052 30.3625 2.83064L28.3841 1.84189C28.2626 1.78121 28.1287 1.74961 27.993 1.74961C27.8572 1.74961 27.7233 1.78121 27.6018 1.84189L25.6375 2.82714C24.2206 3.53826 22.6498 3.88756 21.0652 3.8439C19.4805 3.80023 17.9313 3.36495 16.5558 2.57689L15.3125 1.86552C15.1793 1.78865 15.0283 1.74822 14.8745 1.74829C14.7208 1.74837 14.5698 1.78895 14.4367 1.86595C14.3036 1.94295 14.1932 2.05366 14.1165 2.18691C14.0399 2.32017 13.9996 2.47128 14 2.62502V13.65C13.9957 17.6156 15.0714 21.5075 17.1116 24.908C19.1519 28.3084 22.0796 31.0891 25.5806 32.9516L27.5878 34.0218C27.7146 34.0895 27.8562 34.1249 28 34.1249C28.1437 34.1249 28.2853 34.0895 28.4121 34.0218L30.4193 32.9516C33.9204 31.0893 36.8483 28.3086 38.8885 24.9081C40.9288 21.5076 42.0044 17.6156 42 13.65ZM28 32.2586L26.4048 31.4073C23.1838 29.6939 20.4901 27.1358 18.613 24.0073C16.7359 20.8789 15.7461 17.2984 15.75 13.65V4.13265C17.3704 5.04753 19.1909 5.54998 21.0512 5.59576C22.9115 5.64153 24.7545 5.22923 26.418 4.39514L27.993 3.60765L29.5802 4.40039C31.2443 5.23406 33.0879 5.64567 34.9485 5.59898C36.8092 5.55229 38.6298 5.04872 40.25 4.13265V13.65C40.254 17.2984 39.2643 20.8791 37.3871 24.0075C35.51 27.1359 32.8162 29.6941 29.5951 31.4073L28 32.2586Z" fill="white"/>
    <path d="M38.5 7.90471C38.5 7.77409 38.4708 7.64512 38.4146 7.52724C38.3583 7.40937 38.2763 7.3056 38.1747 7.22353C38.0731 7.14146 37.9544 7.08319 37.8273 7.05298C37.7002 7.02277 37.568 7.0214 37.4403 7.04896C34.5205 7.67139 31.4759 7.28809 28.8015 5.96133L28.3885 5.75571C28.2663 5.69417 28.1315 5.66211 27.9947 5.66211C27.8579 5.66211 27.7231 5.69417 27.601 5.75571L27.1967 5.95783C24.5219 7.28641 21.4762 7.67067 18.5552 7.04808C18.4278 7.02127 18.2961 7.02321 18.1696 7.05377C18.043 7.08432 17.9249 7.14272 17.8238 7.2247C17.7227 7.30669 17.6412 7.41019 17.5852 7.52768C17.5291 7.64517 17.5 7.77367 17.5 7.90383V13.65C17.4962 16.9811 18.3998 20.2503 20.1137 23.1067C21.8277 25.963 24.2872 28.2987 27.2282 29.8628L27.5878 30.0553C27.7145 30.1229 27.8559 30.1582 27.9995 30.1582C28.1431 30.1582 28.2845 30.1229 28.4112 30.0553L28.7717 29.8628C31.7127 28.2987 34.1722 25.963 35.8862 23.1067C37.6001 20.2503 38.5037 16.9811 38.5 13.65V7.90471ZM36.75 13.65C36.7532 16.6539 35.9411 19.6024 34.4001 22.1809C32.8591 24.7594 30.6471 26.8713 28 28.2913C25.3528 26.8713 23.1408 24.7594 21.5998 22.1809C20.0588 19.6024 19.2467 16.6539 19.25 13.65V8.94859C22.2383 9.36331 25.2822 8.86716 27.9842 7.52496L28 7.51621L28.021 7.52758C30.7212 8.86924 33.7635 9.3648 36.75 8.94946V13.65Z" fill="white"/>
    <path d="M32.9498 12.1879L26.25 18.8878L23.5182 16.156C23.3532 15.9966 23.1322 15.9084 22.9027 15.9104C22.6733 15.9124 22.4539 16.0045 22.2916 16.1667C22.1294 16.3289 22.0374 16.5484 22.0354 16.7778C22.0334 17.0072 22.1216 17.2283 22.281 17.3933L25.6313 20.7437C25.7954 20.9077 26.0179 20.9998 26.25 20.9998C26.482 20.9998 26.7045 20.9077 26.8686 20.7437L34.1871 13.4252C34.2707 13.3444 34.3373 13.2479 34.3832 13.1411C34.429 13.0344 34.4532 12.9196 34.4542 12.8034C34.4552 12.6872 34.4331 12.572 34.3891 12.4644C34.3451 12.3569 34.2801 12.2592 34.1979 12.1771C34.1158 12.0949 34.0181 12.0299 33.9105 11.9859C33.803 11.9419 33.6878 11.9198 33.5716 11.9208C33.4554 11.9218 33.3406 11.946 33.2339 11.9918C33.1271 12.0377 33.0306 12.1043 32.9498 12.1879Z" fill="white"/>
</svg>

<svg width="56" height="56" fill="none" xmlns="http://www.w3.org/2000/svg"><path d="M51.258 18.307a3.582 3.582 0 00-4.138 2.662l-2.067 7.7a3.49 3.49 0 00-3.675-.11l-5.983 3.51A7.906 7.906 0 0031.5 38.86v6.64h-1.75a.875.875 0 00-.875.875v7a.875.875 0 00.875.875H45.5a.875.875 0 00.875-.875v-7a.875.875 0 00-.875-.875h-1.75v-1.015a2.624 2.624 0 01.916-1.993l4.08-3.5a4.361 4.361 0 001.38-2.188l3.796-14.168c.08-.297.12-.603.118-.91a3.515 3.515 0 00-2.782-3.42zM44.625 52.5h-14v-5.25h14v5.25zm7.607-30.318l-3.797 14.17a2.611 2.611 0 01-.827 1.312l-4.08 3.5A4.375 4.375 0 0042 44.485V45.5h-8.75v-6.64a6.148 6.148 0 013.026-5.283l5.976-3.506c.266-.153.568-.233.875-.234a1.727 1.727 0 011.564.963 1.837 1.837 0 01-.797 2.372l-4.9 2.824a.876.876 0 00.874 1.517l4.9-2.824a3.573 3.573 0 001.636-4.293l2.407-8.969a1.857 1.857 0 012.089-1.4 1.756 1.756 0 011.332 2.155zM26.25 45.5H24.5v-6.64a7.906 7.906 0 00-3.89-6.792l-5.99-3.514a3.495 3.495 0 00-3.675.114l-2.066-7.7a3.587 3.587 0 00-4.14-2.663 3.506 3.506 0 00-2.664 4.329l3.797 14.17A4.354 4.354 0 007.25 38.99l4.08 3.5a2.624 2.624 0 01.92 1.994V45.5H10.5a.875.875 0 00-.875.875v7a.875.875 0 00.875.875h15.75a.875.875 0 00.875-.875v-7a.875.875 0 00-.875-.875zm-13.778-4.337l-4.08-3.5a2.605 2.605 0 01-.827-1.313L3.768 22.181a1.756 1.756 0 011.334-2.162 1.859 1.859 0 012.089 1.4l2.407 8.968a3.573 3.573 0 001.635 4.294l4.9 2.824a.876.876 0 10.875-1.517l-4.9-2.824a1.838 1.838 0 01-.798-2.372 1.73 1.73 0 011.561-.955c.305 0 .605.079.87.23l5.983 3.511a6.146 6.146 0 013.026 5.282v6.64H14v-1.015a4.375 4.375 0 00-1.528-3.322zM25.375 52.5h-14v-5.25h14v5.25zM42 13.65V2.625a.876.876 0 00-1.313-.76l-1.246.713a9.606 9.606 0 01-9.079.253l-1.978-.99a.875.875 0 00-.782 0l-1.965.986a9.604 9.604 0 01-9.081-.25l-1.244-.711A.875.875 0 0014 2.625V13.65a21.836 21.836 0 0011.58 19.302l2.008 1.07a.875.875 0 00.824 0l2.007-1.07A21.834 21.834 0 0042 13.65zM28 32.259l-1.595-.852A20.089 20.089 0 0115.75 13.65V4.133a11.35 11.35 0 0010.668.262l1.575-.787 1.587.792a11.35 11.35 0 0010.67-.267v9.517a20.087 20.087 0 01-10.655 17.757L28 32.26z" fill="#fff"/><path d="M38.5 7.905a.877.877 0 00-1.06-.856c-2.92.622-5.964.24-8.638-1.088l-.413-.205a.875.875 0 00-.788 0l-.404.202a13.227 13.227 0 01-8.642 1.09.875.875 0 00-1.055.856v5.746a18.34 18.34 0 009.728 16.213l.36.192a.875.875 0 00.823 0l.36-.192A18.34 18.34 0 0038.5 13.65V7.905zm-1.75 5.745A16.595 16.595 0 0128 28.291a16.594 16.594 0 01-8.75-14.641V8.949a14.998 14.998 0 008.734-1.424L28 7.516l.021.012a14.98 14.98 0 008.729 1.421v4.701z" fill="#fff"/><path d="M32.95 12.188l-6.7 6.7-2.732-2.732a.875.875 0 00-1.237 1.237l3.35 3.35a.875.875 0 001.238 0l7.318-7.318a.876.876 0 10-1.237-1.237z" fill="#fff"/></svg>
